Newaita/actions/24/format-break-node.svg

<svg height="24" viewBox="0 0 24 24" width="24" xmlns="http://www.w3.org/2000/svg"><g fill="#424242"><path d="m14.882812 22.019531v-6.949219h6.949219v5.957032c0 .546875-.445312.992187-.992187.992187zm1.984376-1.988281h2.480468c.277344 0 .496094-.21875.496094-.496094v-2.480468h-2.976562zm0 0"/><path d="m8.929688 22.019531v-6.949219h-6.945313v5.957032c0 .546875.441406.992187.992187.992187zm-1.984376-1.988281h-2.480468c-.273438 0-.496094-.21875-.496094-.496094v-2.480468h2.976562zm0 0"/><path d="m13.890625 4.652344h7.941406v1.984375h-7.941406zm0 0"/><path d="m7.9375 19.535156h1.984375v-1.984375h-1.984375zm0 0"/><path d="m14.386719 11.101562h-4.960938l2.480469 2.976563zm0 0"/><path d="m9.425781 2.171875c-.546875 0-.992187.441406-.992187.992187v4.960938c0 .550781.445312.992188.992187.992188h4.960938c.550781 0 .992187-.441407.992187-.992188v-4.960938c0-.550781-.441406-.992187-.992187-.992187zm1.488281 1.984375h1.984376c.277343 0 .496093.222656.496093.496094v1.984375c0 .277343-.21875.496093-.496093.496093h-1.984376c-.273437 0-.496093-.21875-.496093-.496093v-1.984375c0-.273438.222656-.496094.496093-.496094zm0 0"/><path d="m1.984375 4.652344h7.9375v1.984375h-7.9375zm0 0"/><path d="m13.890625 19.535156h1.984375v-1.984375h-1.984375zm0 0"/></g></svg>

<?xml version="1.0" encoding="UTF-8"?>
<svg xmlns="http://www.w3.org/2000/svg" xmlns:xlink="http://www.w3.org/1999/xlink" width="24px" height="24px" viewBox="0 0 24 24" version="1.1">
<g id="surface1">
<path style=" stroke:none;fill-rule:nonzero;fill:rgb(25.882354%,25.882354%,25.882354%);fill-opacity:1;" d="M 14.882812 22.019531 L 14.882812 15.070312 L 21.832031 15.070312 L 21.832031 21.027344 C 21.832031 21.574219 21.386719 22.019531 20.839844 22.019531 Z M 16.867188 20.03125 L 19.347656 20.03125 C 19.625 20.03125 19.84375 19.8125 19.84375 19.535156 L 19.84375 17.054688 L 16.867188 17.054688 Z M 16.867188 20.03125 "/>
<path style=" stroke:none;fill-rule:nonzero;fill:rgb(25.882354%,25.882354%,25.882354%);fill-opacity:1;" d="M 8.929688 22.019531 L 8.929688 15.070312 L 1.984375 15.070312 L 1.984375 21.027344 C 1.984375 21.574219 2.425781 22.019531 2.976562 22.019531 Z M 6.945312 20.03125 L 4.464844 20.03125 C 4.191406 20.03125 3.96875 19.8125 3.96875 19.535156 L 3.96875 17.054688 L 6.945312 17.054688 Z M 6.945312 20.03125 "/>
<path style=" stroke:none;fill-rule:nonzero;fill:rgb(25.882354%,25.882354%,25.882354%);fill-opacity:1;" d="M 13.890625 4.652344 L 21.832031 4.652344 L 21.832031 6.636719 L 13.890625 6.636719 Z M 13.890625 4.652344 "/>
<path style=" stroke:none;fill-rule:nonzero;fill:rgb(25.882354%,25.882354%,25.882354%);fill-opacity:1;" d="M 7.9375 19.535156 L 9.921875 19.535156 L 9.921875 17.550781 L 7.9375 17.550781 Z M 7.9375 19.535156 "/>
<path style=" stroke:none;fill-rule:nonzero;fill:rgb(25.882354%,25.882354%,25.882354%);fill-opacity:1;" d="M 14.386719 11.101562 L 9.425781 11.101562 L 11.90625 14.078125 Z M 14.386719 11.101562 "/>
<path style=" stroke:none;fill-rule:nonzero;fill:rgb(25.882354%,25.882354%,25.882354%);fill-opacity:1;" d="M 9.425781 2.171875 C 8.878906 2.171875 8.433594 2.613281 8.433594 3.164062 L 8.433594 8.125 C 8.433594 8.675781 8.878906 9.117188 9.425781 9.117188 L 14.386719 9.117188 C 14.9375 9.117188 15.378906 8.675781 15.378906 8.125 L 15.378906 3.164062 C 15.378906 2.613281 14.9375 2.171875 14.386719 2.171875 Z M 10.914062 4.15625 L 12.898438 4.15625 C 13.175781 4.15625 13.394531 4.378906 13.394531 4.652344 L 13.394531 6.636719 C 13.394531 6.914062 13.175781 7.132812 12.898438 7.132812 L 10.914062 7.132812 C 10.640625 7.132812 10.417969 6.914062 10.417969 6.636719 L 10.417969 4.652344 C 10.417969 4.378906 10.640625 4.15625 10.914062 4.15625 Z M 10.914062 4.15625 "/>
<path style=" stroke:none;fill-rule:nonzero;fill:rgb(25.882354%,25.882354%,25.882354%);fill-opacity:1;" d="M 1.984375 4.652344 L 9.921875 4.652344 L 9.921875 6.636719 L 1.984375 6.636719 Z M 1.984375 4.652344 "/>
<path style=" stroke:none;fill-rule:nonzero;fill:rgb(25.882354%,25.882354%,25.882354%);fill-opacity:1;" d="M 13.890625 19.535156 L 15.875 19.535156 L 15.875 17.550781 L 13.890625 17.550781 Z M 13.890625 19.535156 "/>
</g>
</svg>
